X:1
T:Beati Omnes
T:Hans Leo Hassler
T:Beati Omnes
T:Copyright © 2014 by CPDL.  This edition can be fully distributed, duplicated, performed, and recorded 
T:Copyright © 2014 by CPDL.  This edition can be fully distributed, duplicated, performed, and recorded 
T:Copyright © 2014 by CPDL.  This edition can be fully distributed, duplicated, performed, and recorded 
T:Copyright © 2014 by CPDL.  This edition can be fully distributed, duplicated, performed, and recorded 
T:Copyright © 2014 by CPDL.  This edition can be fully distributed, duplicated, performed, and recorded 
T:Copyright © 2014 by CPDL.  This edition can be fully distributed, duplicated, performed, and recorded 
T:Copyright © 2014 by CPDL.  This edition can be fully distributed, duplicated, performed, and recorded 
T:Copyright © 2014 by CPDL.  This edition can be fully distributed, duplicated, performed, and recorded 
T:Copyright © 2014 by CPDL.  This edition can be fully distributed, duplicated, performed, and recorded 
T:Copyright © 2014 by CPDL.  This edition can be fully distributed, duplicated, performed, and recorded 
T:Copyright © 2014 by CPDL.  This edition can be fully distributed, duplicated, performed, and recorded 
C:Hans Leo Hassler
Z:Copyright © 2014 by CPDL.  This edition can be fully distributed, duplicated, performed, and recorded
%%score [ 1 2 3 4 ]
L:1/8
Q:1/2=104
M:2/1
K:Bb
V:1 treble nm="Soprano" snm="S."
V:2 treble nm="Alto" snm="A."
V:3 treble-8 transpose=-12 nm="Tenor" snm="T."
V:4 bass nm="Bass" snm="B."
V:1
"^Ps 128: Blessed are all who fear the Lord,who walk in his ways. What your hands provideyou will enjoy; you will be blessed and prosper:Your wife will be like a fruitful vine within your home,Your children like olive plants around your table.Thus is the man blessed who fears the Lord. May the Lord bless you from Zion;may you see Jerusalem’s prosperity all the days of your life, and live to see your children’s children.Peace upon Israel!" G16 | %1
w: Be-|
 c12 c4 | d8 c4 f4 | f4 =e4 (f6 _e2 | d4) d4 c8 | z4 f4 f4 e4 | d6 d2 c8- | (c4 B2 A2 G8) | z16 | %9
w: a- ti|o- mnes qui|ti- ment Do- *|* mi- num,|qui ti- ment|Do- mi- num,|_ _ _ _||
 z16 | F8 c4 c4 | (d6 c2 B8) | A4 f4 f4 =e4 | f6 e2 d2 c2 c4- | c4 =B4 c8- | c8 z4 d4 | %16
w: |Be- a- ti|o- * *|mnes qui ti- ment|Do- * * * *|* mi- num,|_ qui|
 B6 B2 c4 G4 | (A2 G2 A2 B2 c4) c4 | d8 c8 | z4 c4 c8 | c4 f6 f2 d4 | d4 B6 G2 c4- | %22
w: am- bu- lant in|vi- * * * * is|e- jus.|La- bo-|res ma- nu- um|tu- a- * *|
 c4 =B4 c4 c4- | c4 c4 e4 d4 | c2 B2 B8 A4 | B8 d8- | d8 c8 | B8 A4 c4 | d2 e2 f2 d2 e4 d4 | %29
w: * * rum qui-|* a man- du-|ca- * * *|bis, be-|* a-|tus es et|be- * * * * ne|
 c4 e4 d2 e2 f4- | f4 =e4 f8 | z16 | z4 F4 G2 A2 B2 G2 | A6 GA B4 A4 | G4 d4 G6 A2 | B4 A6 G2 G4- | %36
w: ti- bi e- * *|* * rit,||et be- * * *|* * * * ne|ti- bi e- *||
 G4 ^F4 G8 | z8 z4 c4- | c4 G4 B8 | F4 f8 c4 | e8 B4 B2 c2 | d2 c2 d2 e2 f4 F4 | A4 (G2 F2 G4) G4 | %43
w: * * rit.|U-|* xor tu-|a, u- xor|tu- a si- *|* * * * * cut|vi- tis _ _ a-|
 A4 F4 z4 d4- | d4 d4 e6 e2 | d4 e8 d4 | c2 B2 B8 A4 | B4 F4 G4 A4 | B8 A8 | z16 | z4 c4 c4 =B4 | %51
w: bun- dans in|_ la- te- ri-|bus do- mus|tu- * * *|ae, fi- li- i|tu- i||si- cut no-|
 c6 _B2 A2 B2 c4 | F4 B8 A4 | G8 A4 c4- | c4 c4 d2 _e2 f2 e2 | d2 c2 B2 A2 B4 B4 | d4 e8 d4- | %57
w: vel- * * * *|lae o- li-|va- rum in|_ cir- cu- * * *|* * * * * i-|tu men- sae|
 d4 (c8 =B4) | c16 || z16 | z16 | z16 | z16 | c8 F8 | z4 c8 c4 | d4 c4 A2 B2 c2 A2 | %66
w: _ tu- *|ae.|||||Ec- ce|sic be-|ne- di- ce- * * *|
 B2 c2 d6 cB A2 B2 | c4 e4 (d6 cB | A8) A8 | z4 B4 B4 A4 | B6 B2 F8- | F8 z4 B4 | B4 d4 c6 c2 | %73
w: |* tur ho- * *|* mo|qui ti- met|Do- mi- num,|_ qui|ti- met Do- mi-|
 B4 d6 c2 c4- | c4 =B4 c8 | z4 c8 c4 | d4 =e4 f4 _e4 | d6 d2 d4 d4 | d8 =B4 d4 | %79
w: num, Do- * *|* mi- num.|Be- ne|di- cat ti- bi|Do- mi- nus ex|Si- on, ex|
 e2 d2 c2 B2 A2 F2 B4- | B4 A4 B4 B4 | d8 c8 | z16 | z4 B4 f6 f2 | e8 d8 | c4 f4 d4 =e4 | %86
w: Si- * * * * * *|* * on, ex|Si- on,||et vi- de-|as bo-|na Je- ru- sa-|
 f4 d6 d2 d4- | d4 c4 e8 | d4 f4 d4 e4- | e2 d2 c8 =B4 ||[M:3/2] c8 z4 | c4 c6 c2 | d4 B6 B2 | %93
w: lem o- mni- bus|_ di- e-|bus vi- tae tu-||ae.|Et vi- de-|as fi- li-|
 c4 f2 e2 d2 c2 | B4 e4 c4 | d4 B4 A4 | (c6 =BA B4) | c8 z4 ||[M:2/1] d8 d8 | e8 d8 | c12 c4 || %101
w: os fi- * * *|* * li-|o- rum tu-|o- * * *|rum:|pa- cem|su- per|Is- ra-|
[M:3/2] A8 z4 | c4 c6 c2 | d4 B6 B2 | c4 f2 e2 d2 c2 | B4 e4 c4 | (d4 B4) A4 | G4 G8 | G12 || %109
w: el.|Et vi- de-|as fi- li-|os fi- * * *|* * li-|o- * rum|tu- o-|rum:|
[M:2/1] d8 d8 | e8 d8 | c12 c4 | A16 |] %113
w: pa- cem|su- per|Is- ra-|el.|
V:2
 z16 | C16 | F12 F4 | G8 F8 | z4 B4 B4 A4 | (B6 A2 G4) G4 | F4 B4 B4 A4 | G2 F2 F8 =E4 | F16 | %9
w: |Be-|a- ti|o- mnes|qui ti- ment|Do- * * mi-|num, qui ti- ment|Do- * * mi-|num,|
 z16 | z16 | z4 F4 F4 =E4 | F2 G2 A2 F2 G4 G4 | _A16 | (G6 F2 =E4) E4 | F16 | z4 G4 =E6 E2 | %17
w: ||qui ti- ment|Do- * * * * mi-|num,|Do- * * mi-|num,|qui am- bu-|
 F4 C4 F4 G4 | G2 F2 F8 =E4 | F8 z4 F4 | F4 C4 D4 F4 | F8 E8 | D8 C4 G4- | G4 A4 B4 A4 | %24
w: lant in vi- is|e- * * *|jus. La-|bo- res ma- nu-|um tu-|a- rum qui-|* a man- du-|
 (G6 F2 E8) | D8 B,8- | B,8 A,8 | B,8 C8 | z4 F4 G2 A2 B2 G2 | A4 G4 B4 A4 | G8 F8 | B,8 C4 B,4 | %32
w: ca- * *|bis, be-|* a-|tus es|et be- * * *|* ne ti- bi|e- rit,|et be- ne|
 D4 C4 B,4 G,4 | z4 C4 D2 E2 F2 D2 | E4 D4 E4 E4 | F2 E2 C2 D2 E8 | D16 | z4 F8 C4 | E8 D4 B4- | %39
w: ti- bi e- rit,|et be- * * *|* ne ti- bi|e- * * * *|rit.|U- xor|tu- a, u-|
 B4 F4 _A8 | G4 G8 G4 | (F6 E2 D4) D4 | =E4 (F8 E4) | F4 A8 A4 | B6 B2 G8 | z4 G8 _B4 | (G8 F8) | %47
w: * xor tu-|a si- cut|vi- * * tis|a- bun- *|das in la-|te- ri- bus|do- mus|tu- *|
 D4 D6 D2 F4- | F4 =E4 F4 C4 | D4 _E4 F8 | =E8 z8 | z4 F4 F4 G4 | A4 F4 G2 G2 F4- | %53
w: ae. fi- li- i|* tu- i, fi-|li- i tu-|i|si- cut no-|vel- lae o- li- va-|
 (F4 =E4) F4 A4- | A4 A4 B8- | B4 F4 F4 G4 | B4 G6 A2 B2 A2 | G16 | =E16 || z16 | z16 | z16 | z16 | %63
w: * * rum in|_ cir- cu-|* i- tu men-|sae tu- * * *||ae.|||||
 z16 | F8 C8 | z4 F8 F4 | G4 F4 D2 E2 F2 D2 | E4 C4 (F2 D2 G4) | F8 z4 F4 | %69
w: |Ec- ce|sic be-|ne- di- ce- * * *|* tur ho- * *|mo qui|
 F4 !courtesy!=E4 F6 F2 | B,4 B,4 B,4 D4 | C6 C2 B,8 | z4 B4 B4 A4 | (B6 A2 G8-) | G4 G4 =E8 | %75
w: ti- met Do- mi-|num, qui ti- met|Do- mi- num,|qui ti- met|Do- * *|* mi- num,|
 z4 G8 G4 | G4 G4 _A4 G4 | B6 B2 =A4 G4- | G4 ^F4 G8 | G8 F8- | F8 (D6 E2 | F8) z4 F4 | B6 B2 A8 | %83
w: Be- ne|di- cat ti- bi|Do- mi- nus ex|_ Si- on,|ex Si-|* on, _|_ et|vi- de- as|
 G8 F4 B4 | G4 A4 B2 AG F2 G2 | A4 A4 B4 G4 | F4 B,6 B,2 B,4- | B,4 A,4 B,8 | B,8 F4 G4 | %89
w: bo- na Je-|ru- sa- lem, _ _ _ _|_ Je- ru- sa-|lem o- mni- bus|_ di- e-|bus vi- tae|
 (E6 F2 G8) ||[M:3/2] G8 z4 | A4 A6 A2 | B4 G6 G2 | A4 F8 | G4 G4 F2 E2 | F4 D4 C4 | E4 D8 | %97
w: tu- * *|ae.|Et vi- de-|as fi- li-|os fi-|li- o- * *|* * rum|tu- o-|
 =E8 z4 ||[M:2/1] F8 F8 | G4 G8 F4- | (F4 =E2 D2 E4) E4 ||[M:3/2] F8 z4 | A4 A6 A2 | B4 G6 G2 | %104
w: rum:|pa- cem|su- per Is-|* * * * ra-|el.|Et vi- de-|as fi- li-|
 A8 B4 | G4 G2 F2 G2 A2 | B4 F4 F4 | E4 D8 | =E12 ||[M:2/1] F8 F8 | G4 G8 F4- | (F4 =E2 D2 E4) E4 | %112
w: os fi-|li- o- * * *|* * rum|tu- o-|rum:|pa- cem|su- per Is-|* * * * ra-|
 F16 |] %113
w: el.|
V:3
 z16 | z16 | z16 | z16 | z16 | z16 | F16 | c12 c4 | d8 c4 f4 | f4 =e4 (f6 _e2 | d4) d4 c8 | z16 | %12
w: ||||||Be-|a- ti|o- mnes qui|ti- ment Do- *|* mi- num,||
 c8 c8- | c4 c4 (f6 e2 | d4) d4 c4 c4 | A6 A2 B4 A4 | G8 G4 c4 | c2 B2 A2 G2 A4 G4 | A4 B4 G8 | %19
w: qui ti-|* ment Do- *|* mi- num, qui|am- bu- lant in|vi- is, in|vi- * * * * *|* is e-|
 F8 z4 A4 | A8 A8 | B4 d4 G4 g4 | (g2 f2 d4) e4 c4- | c4 f4 g4 f4 | (e6 d2 c8) | B8 f8- | %26
w: jus. La-|bo- res|ma- nu- um tu-|a- * * rum qui-|* a man- du-|ca- * *|bis, be-|
 f4 (f6 c2 f4-) | f4 =e4 f8 | z16 | z16 | z8 z4 F4 | G2 A2 B2 G2 A4 G4 | B4 A4 G8 | F8 z4 F4 | %34
w: * a- * *|* tus es|||et|be- * * * * ne|ti- bi e-|rit, et|
 G2 A2 B2 G2 c4 c4 | F4 A4 (c6 B2 | A8) G8 | d8 A8 | c8 G4 d4- | d4 d4 c8- | c8 (G6 A2 | %41
w: be- * * * * ne|ti- bi e- *|* rit.|U- xor|tu- a si-|* cut vi-|* tis _|
 B4) B4 B8 | c8 z4 c4- | c4 c4 f6 f2 | d4 G8 c4 | =B4 c4 c4 f4 | e8 c8 | z4 B6 B2 A4 | %48
w: _ a- bun-|das in|_ la- te- ri-|bus do- mus|tu- ae, do- mus|tu- ae,|fi- li- i|
 G8 F2 G2 A2 B2 | A4 c4 c4 =B4 | (c6 _B2 A4) G4 | A6 B2 c8- | c4 d4 c8 | c12 f4- | %54
w: tu- i * * *|* si- cut no-|vel- * * lae|o- * *|* li- va-|rum in|
 f4 f4 f2 _e2 d2 e2 | f2 e2 d2 c2 d4 d4 | B4 c8 f4 | (e8 d8) | c16 || c8 F8 | z4 c8 c4 | %61
w: _ cir- cu- * * *|* * * * * i-|tu men- sae|tu- *|ae.|Ec- ce|sic be-|
 d4 c4 A2 B2 c2 A2 | B2 c2 d6 cB A2 B2 | c4 e4 d6 cB | A8 A8 | z16 | z4 B4 B4 d4 | c6 c2 (B6 c2 | %68
w: ne- di- ce- * * *||* tur ho- * *|* mo||qui ti- met|Do- mi- num, _|
 d4) c4 c8 | B8 c6 c2 | d16 | z8 z4 d4 | (g6 f2 =e4) f4 | d6 cB _e8 | d6 d2 c8 | z4 _e8 e4 | %76
w: _ qui ti-|met Do- mi-|num,|qui|ti- * * met|Do- * * *|* mi- num,|Be- ne|
 d4 c4 c4 c4 | d4 G4 A4 B4 | A8 G4 =B4 | c4 e8 d4 | c8 B8 | z16 | z4 B4 f6 f2 | e8 d8 | %84
w: di- cat ti- bi|Do- * mi- ex|Si- on, Do-|mi- nus ex|Si- on,||et vi- de-|as bo-|
 c4 c4 G4 B4 | F8 z8 | z4 f6 f2 f4- | f4 f4 g8 | f4 d8 B4 | (c8 d8) ||[M:3/2] =e8 z4 | f4 f6 f2 | %92
w: na Je- ru- sa-|lem|o- mni- bus|_ di- e-|bus vi- tae|tu- *|ae.|Et vi- de-|
 B4 e6 g2 | (f2 e2 d2 c2 B4) | e4 c8 | B8 F4 | c4 G8 | c8 z4 ||[M:2/1] B8 B8 | B8 B8 | %100
w: as fi- li-|os _ _ _ _|fi- li-|o- rum|tu- o-|rum:|pa- cem|su- per|
 (A4 G2 F2 G4) G4 ||[M:3/2] F8 z4 | f4 f6 f2 | f4 e6 d2 | f4 F8 | G4 c2 d2 e2 c2 | f4 d4 c4 | %107
w: Is- * * * ra-|el.|Et vi- de-|as fi- li-|os fi-|li- o- * * *|* rum tu-|
 (c6 =BA B4) | c12 ||[M:2/1] z4 (f2 e2 d2 c2 B4-) | B4 B4 B4 B4 | (A4 G2 F2 G4) G4 | F16 |] %113
w: o- * * *|rum:|pa- * * * *|* cem su- per|Is- * * * ra-|el.|
V:4
 z16 | z16 | z16 | z16 | z16 | z16 | z16 | C,16 | F,12 F,4 | G,8 F,8 | z4 B,4 B,4 A,4 | %11
w: |||||||Be-|a- ti|o- mnes|qui ti- ment|
 (B,6 A,2 G,4) G,4 | F,8 z4 C,4 | F,12 F,4 | G,4 G,4 C,8 | z4 F,4 D,6 D,2 | E,8 C,8 | F,12 _E,4 | %18
w: Do- * * mi-|num, qui|ti- ment|Do- mi- num,|qui am- bu-|lant in|vi- is|
 (D,4 B,,4) C,8 | z8 z4 F,4 | F,8 D,8 | B,,6 B,,2 E,4 C,4 | G,8 C,8 | z16 | z16 | z8 B,,8- | %26
w: e- * jus.|La-|bo- res|ma- nu- um tu-|a- rum|||be-|
 B,,8 F,8 | G,8 F,8- | F,8 z8 | z16 | z4 C,4 D,2 E,2 F,2 D,2 | E,4 D,4 C,4 E,4 | D,2 E,2 F,8 =E,4 | %33
w: * a-|tus es|_||et be- * * *|* ne ti- bi|e- * * *|
 F,8 z8 | z4 B,,4 C,2 D,2 E,2 C,2 | D,4 F,4 E,4 C,4 | D,8 G,,4 G,4- | G,4 D,4 F,8 | C,8 (G,6 A,2 | %39
w: rit,|et be- * * *|* ne ti- bi|e- rit. U-|* xor tu-|a si- *|
 B,4) B,4 F,8 | C,4 C,4 E,8 | B,,8 z8 | C,12 C,4 | F,6 F,2 D,8 | G,4 G,4 C,8 | G,4 C,8 D,4 | %46
w: * cut vi-|tis a- bun-|das|in la-|te- ri- bus|do- mus tu-|ae, do- mus|
 (E,8 F,8) | B,,8 z8 | z8 z4 F,4- | F,2 F,2 E,4 D,8 | C,8 z8 | z4 F,4 F,4 =E,4 | F,4 D,4 =E,4 F,4 | %53
w: tu- *|ae,|fi-|* li- i tu-|i|si- cut no-|vel- lae o- li-|
 C,8 F,4 F,4- | F,4 F,4 B,,8 | B,,4 (B,6 A,2 G,2 F,2 | G,4) C,8 D,4 | (E,6 F,2 G,8) | C,16 || z16 | %60
w: va- rum in|_ cir- cu-|i- tu * * *|* men- sae|tu- * *|ae.||
 F,8 C,8 | z4 F,8 F,4 | G,4 F,4 D,2 E,2 F,2 D,2 | E,4 C,4 D,2 B,,2 D,2 E,2 | F,16 | F,8 z8 | z16 | %67
w: Ec- ce|sic be-|ne- di- ce- * * *|* tur ho- * * *||mo||
 z16 | z4 F,4 F,4 A,4 | G,6 G,2 F,8 | z8 z4 B,4 | B,4 A,4 B,6 B,2 | G,8 z4 F,4 | %73
w: |qui ti- met|Do- mi- num,|qui|ti- met Do- mi-|num, qui|
 G,4 G,4 (E,6 D,C, | G,4) G,4 C,8 | C12 C4 | =B,4 C4 F,4 C,4 | G,6 G,2 ^F,4 G,4 | D,8 G,8 | %79
w: ti- met Do- * *|* mi- num,|Be- ne|di- cat ti- bi|Do- mi- nus ex|Si- on,|
 z4 C,4 (D,6 E,2 | F,8) B,,4 B,,4 | B,6 B,2 A,8 | G,8 F,4 F,4 | C,4 E,4 B,,8 | z16 | z16 | %86
w: ex Si- *|* on, et|vi- de- as|bo- na Je-|ru- sa- lem|||
 z4 B,,6 B,,2 B,,4- | B,,4 F,4 E,8 | B,,4 B,8 G,4 | (_A,8 G,8) ||[M:3/2] C,8 z4 | z12 | z12 | z12 | %94
w: o- mni- bus|_ di- e-|bus vi- tae|tu- *|ae.||||
 z12 | z12 | z12 | z12 ||[M:2/1] B,,8 B,,8 | E,8 B,,8 | C,12 C,4 ||[M:3/2] F,8 z4 | F,4 F,6 F,2 | %103
w: ||||pa- cem|su- per|Is- ra-|el.|Et vi- de-|
 B,,4 E,6 G,2 | (F,2 E,2 D,2 C,2 B,,4) | E,4 C,8 | B,,8 F,4 | C,4 G,8 | C,12 ||[M:2/1] B,,8 B,,8 | %110
w: as fi- li-|os _ _ _ _|fi- li-|o- rum|tu- o-|rum:|pa- cem|
 E,8 B,,8 | C,12 C,4 | F,16 |] %113
w: su- per|Is- ra-|el.|

